X:1
T:My Love is Like a Dewdrop
M:2/4
L:1/8
K:F
 F| AF Ac|B-G E F/2F/2| GB AG| F4| AAA-c| ff f2| d/2d/2 dB d| c3| c/2c/2|\
 cc Ac| f/2 f3/2 ef| d/2 d3/2 Bd| c3 c/2c/2| A3/2 A/2 Ac| B G/2E/2-E/2 E/2 F|\
 GB A3/2 G/2| F3||
